!!!COM: Mozart, Wolfgang Amadeus
!!!OTL: String Quartet No. 6 in B-flat Major
!!!OMD: Andante
!!!OMV: 1
!!!SCT1: K<sup>1</sup> 159
!!!SCA: Chronologisch-thematisches Verzeichnis sämtlicher Tonwerke Wolfgang Amade Mozarts (L. von Köchel; 1862, 2/1905, 3/1937, 1947)
!!!SCT2: K<sup>6</sup> 159
!!!YOR: Breitkopf & Härtel Edition
!!!ENC: Edmund Correia, Jr.
!!!CDT: 1756/1/27/-1791/12/5/
!!!OCY: Österreich
!!!YEC: Copyright (c) 1994, 2000 Center for Computer Assisted Research in the Humanities
!!!YEM: Rights to all derivative editions reserved.
!!!YEM: Refer to licensing agreement for further details.
!!!YEN: United States of America
**kern	**dynam	**kern	**dynam	**kern	**dynam	**kern	**dynam
*I:Violoncello	*I:Violoncello	*I:Viola	*I:Viola	*I:Violino 2	*I:Violino 2	*I:Violino 1	*I:Violino 1
*>[A,A,B,B]	*	*>[A,A,B,B]	*	*>[A,A,B,B]	*	*>[A,A,B,B]	*
*>A	*	*>A	*	*>A	*	*>A	*
*clefF4	*	*clefC3	*	*clefG2	*	*clefG2	*
*k[b-e-]	*	*k[b-e-]	*	*k[b-e-]	*	*k[b-e-]	*
*B-:	*	*B-:	*	*B-:	*	*B-:	*
*M4/4	*	*M4/4	*	*M4/4	*	*M4/4	*
! Andante	!	! Andante	!	! Andante	!	! Andante	!
(2B-\xx	f	(8d\Lxx	f	4ff'\xx	f	1r	.
.	.	8f\	.	.	.	.	.
.	.	8d\	.	4ff'\	.	.	.
.	.	8f\J)	.	.	.	.	.
2A\)	.	(8c\L	.	4r	.	.	.
.	.	8f\	.	.	.	.	.
.	.	8c\	.	(16.aa\LL	.	.	.
.	.	.	.	32ff\k)	.	.	.
.	.	8f\J)	.	(16.aa\	.	.	.
.	.	.	.	32ff\JJk)	.	.	.
=2	=2	=2	=2	=2	=2	=2	=2
(2G\	.	(8B-\L	.	4bb-'\	.	1r	.
.	.	8d\	.	.	.	.	.
.	.	8B-\	.	4bb-'\	.	.	.
.	.	8d\J)	.	.	.	.	.
2D\)	.	(8F/L	.	4r	.	.	.
.	.	8B-/	.	.	.	.	.
.	.	8d/	.	(16.ff\LL	.	.	.
.	.	.	.	32dd\k)	.	.	.
.	.	8B-/J)	.	(16.ff\	.	.	.
.	.	.	.	32dd\JJk)	.	.	.
=3	=3	=3	=3	=3	=3	=3	=3
(2E-\	.	(8G/L	.	4cc\	.	1r	.
.	.	8B-/	.	.	.	.	.
.	.	8G/	.	4cc\	.	.	.
.	.	8B-/J)	.	.	.	.	.
2F\)	.	(8A\L	.	4r	.	.	.
.	.	8c\)	.	.	.	.	.
.	.	(8c\	.	(16.ee-\LL	.	.	.
.	.	.	.	32cc\k)	.	.	.
.	.	8e-\J)	.	(16.ee-\	.	.	.
.	.	.	.	32cc\JJk)	.	.	.
=4	=4	=4	=4	=4	=4	=4	=4
4G\	.	(8d\L	.	4b-\	.	1r	.
.	.	8B-\	.	.	.	.	.
4r	.	8d\	.	4b-\	.	.	.
.	.	8B-\J)	.	.	.	.	.
!	!	! (32e-P/LLL	!	! (32ggP/LLL	!	!	!
!	!	! 32fP/JJJ	!	! 32aaP/JJJ	!	!	!
4E-\	.	4.gp\)	.	4.bb-p\)	.	.	.
4G\	.	.	.	.	.	.	.
.	.	16f\LL	.	16aa\LL	.	.	.
.	.	16e-\JJ	.	16gg\JJ	.	.	.
=5	=5	=5	=5	=5	=5	=5	=5
!	!	! 16e-P/	!	! 16ggP/	!	!	!
4B-\	.	8dp\L	.	8ffp\L	.	1r	.
.	.	16c\L	.	16ee-\L	.	.	.
.	.	16B-\JJ	.	16dd\JJ	.	.	.
4r	.	4B-/	.	4dd\	.	.	.
!	!	! (32e-P/LLL	!	! (32ggP/LLL	!	!	!
!	!	! 32fP/JJJ	!	! 32aaP/JJJ	!	!	!
4E-\	.	4.gp\)	.	4.bb-p\)	.	.	.
4G\	.	.	.	.	.	.	.
.	.	16f\LL	.	16aa\LL	.	.	.
.	.	16e-\JJ	.	16gg\JJ	.	.	.
=6	=6	=6	=6	=6	=6	=6	=6
!	!	! 16e-P/	!	! 16ggP/	!	!	!
4B-\	.	8dp\L	.	8ffp\L	.	1r	.
.	.	16c\L	.	16ee-\L	.	.	.
.	.	16B-\JJ	.	16dd\JJ	.	.	.
4r	.	4B-/	.	4dd\	.	.	.
(4D\	.	(4B-/	.	(8.b-/L	.	.	.
.	.	.	.	16f/k)	.	.	.
4C/)	.	4A/)	.	(8.cc/	.	.	.
.	.	.	.	16f/Jk)	.	.	.
=7	=7	=7	=7	=7	=7	=7	=7
4BB-/	.	8B-/	.	8dd\	.	1r	.
.	.	4g\	.	4ee-\	.	.	.
4B-\	.	.	.	.	.	.	.
.	.	4f\	.	4dd\	.	.	.
4E-\	.	.	.	.	.	.	.
.	.	4e-\	.	4cc\	.	.	.
4F\	.	.	.	.	.	.	.
.	.	8c\	.	8a/	.	.	.
=8	=8	=8	=8	=8	=8	=8	=8
4BB-/	.	(12d\L	.	(12b-\L	.	1r	.
.	.	12e-\	.	12cc\	.	.	.
.	.	12f\J)	.	12dd\J)	.	.	.
4r	.	4f\	.	4dd\	.	.	.
(4D\	.	(4B-/	.	(8.b-/L	.	.	.
.	.	.	.	16f/k)	.	.	.
4C/)	.	4A/)	.	(8.cc/	.	.	.
.	.	.	.	16f/Jk)	.	.	.
=9	=9	=9	=9	=9	=9	=9	=9
4BB-/	.	8B-/	.	8dd\	.	4ff'\xx	f
.	.	4A/	.	4ee-\	.	.	.
4B-\	.	.	.	.	.	4ff'\	.
.	.	4B-/	.	4dd\	.	.	.
4F\	.	.	.	.	.	4r	.
.	.	4e-\	.	4cc\	.	.	.
4FF/	.	.	.	.	.	(16.aa\LL	.
.	.	.	.	.	.	32ff\k)	.
.	.	8c\	.	8a/	.	(16.aa\	.
.	.	.	.	.	.	32ff\JJk)	.
=10	=10	=10	=10	=10	=10	=10	=10
8GG/L	.	8c\L	.	8en/L	.	4bb-'\	.
8GG/	.	8c\	.	8e/	.	.	.
8GG/	.	8c\	.	8e/	.	4bb-'\	.
8GG/J	.	8c\J	.	8e/J	.	.	.
8G\L	.	8c\L	.	8e/L	.	4r	.
8G\	.	8c\	.	8e/	.	.	.
8G\	.	8c\	.	8e/	.	(16.bb-\LL	.
.	.	.	.	.	.	32gg\k)	.
8G\J	.	8c\J	.	8e/J	.	(16.bb-\	.
.	.	.	.	.	.	32gg\JJk)	.
=11	=11	=11	=11	=11	=11	=11	=11
8C/L	.	8B-/L	.	8g/L	.	4een'\	.
8C/	.	8B-/	.	8g/	.	.	.
8C/	.	8B-/	.	8g/	.	4ee'\	.
8C/J	.	8B-/J	.	8g/J	.	.	.
8C/L	.	8G/L	.	8en/L	.	4r	.
8C/	.	8G/	.	8e/	.	.	.
8C/	.	8G/	.	8e/	.	(16.gg\LL	.
.	.	.	.	.	.	32ee\k)	.
8C/J	.	8G/J	.	8e/J	.	(16.gg\	.
.	.	.	.	.	.	32b-\JJk)	.
=12	=12	=12	=12	=12	=12	=12	=12
4F\	.	4F/	.	(8f/L	.	4a/	.
.	.	.	.	8c/)	.	.	.
4r	.	4r	.	(8f/	.	4a/	.
.	.	.	.	8c/J)	.	.	.
!	!	! (32B-P/LLL	!	! (32dP/LLL	!	! (32ddP/LLL	!
!	!	! 32cP/JJJ	!	! 32enP/JJJ	!	! 32eenP/JJJ	!
4BB-/	.	4.dp\)	.	4.fp/)	.	4.ffp\)	.
4D\	.	.	.	.	.	.	.
.	.	16c/LL	.	16en/LL	.	16een\LL	.
.	.	16B-/JJ	.	16d/JJ	.	16dd\JJ	.
=13	=13	=13	=13	=13	=13	=13	=13
!	!	! 16B-P/	!	! 16dP/	!	! 16ddP/	!
4F\	.	8Ap/L	.	8cp/L	.	8ccp\L	.
.	.	16G/L	.	16B-/L	.	16b-\L	.
.	.	16F/JJ	.	16A/JJ	.	16a\JJ	.
4r	.	4F/	.	4A/	.	4a/	.
!	!	! (32B-P/LLL	!	! (32dP/LLL	!	! (32ddP/LLL	!
!	!	! 32cP/JJJ	!	! 32enP/JJJ	!	! 32eenP/JJJ	!
4BB-/	.	4.dp\)	.	4.fp/)	.	4.ffp\)	.
4D\	.	.	.	.	.	.	.
.	.	16c/LL	.	16en/LL	.	16een\LL	.
.	.	16B-/JJ	.	16d/JJ	.	16dd\JJ	.
=14	=14	=14	=14	=14	=14	=14	=14
!	!	! 16B-P/	!	! 16dP/	!	! 16ddP/	!
4F\	.	8Ap/L	.	8cp/L	.	8ccp\L	.
.	.	16G/L	.	16B-/L	.	16b-\L	.
.	.	16F/JJ	.	16A/JJ	.	16a\JJ	.
4r	.	4F/	.	4A/	.	4a/	.
4F\	.	(8.f\L	.	(8.A/L	.	(8.ff\L	.
.	.	16c\k)	.	16c/k)	.	16cc\k)	.
4C/	.	(8.g\	.	(8.en/	.	(8.gg\	.
.	.	16c\Jk)	.	16c/Jk)	.	16cc\Jk)	.
=15	=15	=15	=15	=15	=15	=15	=15
4r	.	(4.a\	.	8f/	.	(4.aa\	.
.	.	.	.	(4cc\	.	.	.
4F\	.	.	.	.	.	.	.
.	.	16g\LL	.	16b-\LL	.	16gg\LL	.
.	.	16a\JJ	.	16cc\JJ	.	16aa\JJ	.
(4.BB-/	.	8b-\L)	.	8dd\L)	.	8bb-\L)	.
.	.	8a'\	.	8cc'\	.	8aa'\	.
.	.	8g'\	.	8b-'\	.	8gg'\	.
8BBn/)	.	8f'\J	.	8a'\J	.	8ff'\J	.
=16	=16	=16	=16	=16	=16	=16	=16
!	!	! 16fP/	!	! 16aP/	!	! 16ffP/	!
4C/	.	8enp\L	.	8gp/L	.	8eenp\L	.
.	.	16d\L	.	16f/L	.	16dd\L	.
.	.	16c\JJ	.	16en/JJ	.	16cc\JJ	.
4r	.	4c\	.	4e/	.	4cc\	.
2r	.	2r	.	(8c#/L	p	(8cc#\L	p
.	.	.	.	8d/)	.	8dd\)	.
.	.	.	.	(8c#/	.	(8cc#\	.
.	.	.	.	8d/J)	.	8dd\J)	.
=17	=17	=17	=17	=17	=17	=17	=17
4C/	.	(8.En/L	.	(8.G/L	f	(8.g/L	f
.	.	32F/LL	.	32A/LL	.	32a/LL	.
.	.	32G/JJJ)	.	32B-/JJJ)	.	32b-/JJJ)	.
4FF/	.	4F'/	.	4A'/	.	4a'/	.
2r	.	2r	.	(8c#/L	p	(8cc#\L	p
.	.	.	.	8d/J)	.	8dd\J)	.
.	.	.	.	(16c#/LL	.	(16cc#\LL	.
.	.	.	.	16d/)	.	16dd\)	.
.	.	.	.	(16c#/	.	(16cc#\	.
.	.	.	.	16d/JJ)	.	16dd\JJ)	.
=18	=18	=18	=18	=18	=18	=18	=18
4CC/	.	(8.En/L	.	(8.G/L	f	(8.g/L	f
.	.	32F/LL	.	32A/LL	.	32a/LL	.
.	.	32G/JJJ)	.	32B-/JJJ)	.	32b-/JJJ)	.
4FF/	.	4F'/	.	4A'/	.	4a'/	.
2r	.	2r	.	8.A/L	.	8.ccn\L	.
.	.	.	.	32B-/LL	.	32dd\LL	.
.	.	.	.	32cn/JJJ	.	32een\JJJ	.
.	.	.	.	16d'/LL	.	16ff'\LL	.
.	.	.	.	16en'/	.	16gg'\	.
.	.	.	.	16f'/	.	16aa'\	.
.	.	.	.	16g'/JJ	.	16bb-'\JJ	.
=19	=19	=19	=19	=19	=19	=19	=19
1r	.	1r	.	8a'/L	.	8ccc'\L	.
.	.	.	.	(16g/L	p	(16bb-\L	p
.	.	.	.	32a/L	.	32ccc\L	.
.	.	.	.	32g/JJJ	.	32bb-\JJJ	.
.	.	.	.	8f/)	.	8aa\)	.
.	.	.	.	(16e-/LL	.	(16gg\LL	.
.	.	.	.	32f/L	.	32aa\L	.
.	.	.	.	32e-/JJ	.	32gg\JJ	.
.	.	.	.	8d/J)	.	8ff\J)	.
.	.	.	.	(16c/LL	.	(16ee-\LL	.
.	.	.	.	32d/L	.	32ff\L	.
.	.	.	.	32c/JJ	.	32ee-\JJ	.
.	.	.	.	8B-/J)	.	8dd\J)	.
.	.	.	.	(8A/	f	(8cc#\	f
=20	=20	=20	=20	=20	=20	=20	=20
2r	.	2r	.	4B-/)	.	4dd\)	.
.	.	.	.	4r	.	4r	.
(4B-\	p	2c\	p	(4en/	p	(4g/	p
4A\)	.	.	.	4f/)	.	4a/)	.
=21	=21	=21	=21	=21	=21	=21	=21
8G\	.	8r	.	8g/	.	8b-\	.
(4En\	fp	(4g\	fp	(4b-\	fp	(4dd\	fp
8F\)	.	8c\)	.	8a/)	.	8cc\)	.
(4BB-/	p	(4d\	p	8r	.	8r	.
.	.	.	.	(8g/L	p	(8b-/L	p
4C/)	.	4c\)	.	8f/	.	8a/	.
.	.	.	.	8en/J)	.	8g/J)	.
=22	=22	=22	=22	=22	=22	=22	=22
2F\	.	2c\	.	(4en/	.	(4g#/	.
.	.	.	.	4f/)	.	4a/)	.
(4B-\	.	2c\	.	(4e/	.	(4gn/	.
4A\)	.	.	.	4f/)	.	4a/)	.
=23	=23	=23	=23	=23	=23	=23	=23
8G\	.	8r	.	8g/	.	8b-\	.
(4En\	fp	(4g\	fp	(4b-\	fp	(4dd\	fp
8F\)	.	8c\)	.	8a/)	.	8cc\)	.
(4BB-/	p	(4d\	p	8r	.	8r	.
.	.	.	.	(8g/L	p	(8b-/L	p
8C/L	.	4c\)	.	8f/	.	8a/	.
8BB-/J)	.	.	.	8en/J)	.	8g/J)	.
=24	=24	=24	=24	=24	=24	=24	=24
4AA/	f	8r	.	8r	.	8r	.
.	.	(4f\	fp	(4a/	fp	(4aa\	fp
4r	.	.	.	.	.	.	.
.	.	8c\)	.	8f/)	.	8ff\)	.
4BB-/	.	8r	.	8r	.	8r	.
.	.	(4d\	fp	(4f/	fp	(4ff\	fp
4r	.	.	.	.	.	.	.
.	.	8B-/)	.	8d/)	.	8dd\)	.
=25	=25	=25	=25	=25	=25	=25	=25
2C/	p	(8.A/L	p	(8.c/L	p	(8.cc\L	p
.	.	32B-/LL	.	32d/LL	.	32dd\LL	.
.	.	32G/JJJ)	.	32B-/JJJ)	.	32b-\JJJ)	.
.	.	8F'/L	.	8A'/L	.	8a'/L	.
.	.	8F'/J	.	8A'/J	.	8a'/J	.
2CC/	.	8r	.	8r	.	8r	.
.	.	(8F/L	.	(8A/L	.	(8a/L	.
.	.	8G/	.	8B-/	.	8b-/	.
.	.	8En/J)	.	8G/J)	.	8g/J)	.
=26	=26	=26	=26	=26	=26	=26	=26
4AA/	f	8r	.	8r	.	8r	.
.	.	(4f\	fp	(4a/	fp	(4aa\	fp
4r	.	.	.	.	.	.	.
.	.	8c\)	.	8f/)	.	8ff\)	.
4BB-/	.	8r	.	8r	.	8r	.
.	.	(4d\	fp	(4f/	fp	(4ff\	fp
4r	.	.	.	.	.	.	.
.	.	8B-/)	.	8d/)	.	8dd\)	.
=27	=27	=27	=27	=27	=27	=27	=27
2C/	p	(8.A/L	p	(8.c/L	p	(8.cc\L	p
.	.	32B-/LL	.	32d/LL	.	32dd\LL	.
.	.	32G/JJJ)	.	32B-/JJJ)	.	32b-\JJJ)	.
.	.	8F'/L	.	8A'/L	.	8a'/L	.
.	.	8F'/J	.	8A'/J	.	8a'/J	.
2CC/	.	8r	.	8r	.	8r	.
.	.	(8F/L	.	(8A/L	.	(8a/L	.
.	.	8G/	.	8B-/	.	8b-/	.
.	.	8En/J)	.	8G/J)	.	8g/J)	.
=28	=28	=28	=28	=28	=28	=28	=28
(8FF/L	.	(8F/L	.	8A/	.	(8f/L	.
8EEn/	.	8En/	.	8r	.	8en/	.
8FF/	.	8F/	.	(8f/L	.	8f/	.
8GG/J	.	8G/J	.	8g/J	.	8g/J	.
8AA/L	.	8A/L	.	8a\L	.	8a\L	.
8BB-/	.	8B-/	.	8b-\	.	8b-\	.
8C/	.	8c/	.	8cc\	.	8cc\	.
8D/J)	.	8d/J)	.	8dd\J)	.	8dd\J)	.
=29	=29	=29	=29	=29	=29	=29	=29
8E-'\	.	8e-'\	.	8ee-'\	.	8ee-'\	.
8r	.	8r	.	8r	.	8r	.
8C'/	.	8c'\	.	8cc'\	.	8cc'\	.
8r	.	8r	.	8r	.	8r	.
8AA'/	.	8A'/	.	8a'/	.	8a'/	.
8r	.	8r	.	8r	.	8r	.
4r	.	4r	.	4r	.	4r	.
=30:!!:	=30:!!:	=30:!!:	=30:!!:	=30:!!:	=30:!!:	=30:!!:	=30:!!:
*>B	*	*>B	*	*>B	*	*>B	*
4D\	f	4d\	f	8ff#'\	f	8aa'\	f
.	.	.	.	(16ee-\LL	.	(16gg\LL	.
.	.	.	.	32ffn\L	.	32aa\L	.
.	.	.	.	32ee-\JJ	.	32gg\JJ	.
4r	.	4r	.	8dd\J)	.	8ff#\J)	.
.	.	.	.	(16cc\LL	.	(16ee-\LL	.
.	.	.	.	32dd\L	.	32ffn\L	.
.	.	.	.	32cc\JJ	.	32ee-\JJ	.
2r	.	2r	.	8b-\J)	.	8dd\J)	.
.	.	.	.	(16a/LL	.	(16cc\LL	.
.	.	.	.	32b-/L	.	32dd\L	.
.	.	.	.	32a/JJ	.	32cc\JJ	.
.	.	.	.	8g/J)	.	8b-\J)	.
.	.	.	.	(16f#/LL	.	(16a/LL	.
.	.	.	.	32g/L	.	32b-/L	.
.	.	.	.	32f#/JJJ	.	32a/JJJ	.
=31	=31	=31	=31	=31	=31	=31	=31
8GG'/	.	8B-'/	.	4g/)	.	4b-\)	.
(16AA/LL	.	(16c\LL	.	.	.	.	.
32BB-/L	.	32d\L	.	.	.	.	.
32AA/JJJ	.	32c\JJJ	.	.	.	.	.
8BB-/)	.	8d\)	.	4r	.	4r	.
(16C/LL	.	(16e-\LL	.	.	.	.	.
32D/L	.	32f\L	.	.	.	.	.
32C/JJJ	.	32e-\JJJ	.	.	.	.	.
8D\)	.	8f#\)	.	2r	.	2r	.
(16E-\LL	.	(16g\LL	.	.	.	.	.
32F\L	.	32a\L	.	.	.	.	.
32E-\JJ	.	32g\JJ	.	.	.	.	.
8F#\J)	.	8a\J)	.	.	.	.	.
8G'\	.	8b-'\	.	.	.	.	.
=32	=32	=32	=32	=32	=32	=32	=32
4C/	.	4g\	.	8een'\	.	8gg'\	.
.	.	.	.	(16dd\LL	.	(16ffn\LL	.
.	.	.	.	32ee\L	.	32gg\L	.
.	.	.	.	32dd\JJ	.	32ff\JJ	.
4r	.	4r	.	8cc\J)	.	8een\J)	.
.	.	.	.	(16b-\LL	.	(16dd\LL	.
.	.	.	.	32cc\L	.	32ee\L	.
.	.	.	.	32b-\JJ	.	32dd\JJ	.
2r	.	2r	.	8a\J)	.	8cc\J)	.
.	.	.	.	(16g/LL	.	(16b-\LL	.
.	.	.	.	32a/L	.	32cc\L	.
.	.	.	.	32g/JJ	.	32b-\JJ	.
.	.	.	.	8fn/J)	.	8a\J)	.
.	.	.	.	(16en/LL	.	(16g/LL	.
.	.	.	.	32f/L	.	32a/L	.
.	.	.	.	32e/JJJ	.	32g/JJJ	.
=33	=33	=33	=33	=33	=33	=33	=33
8FF'/	.	8A'/	.	4f/)	.	4a/)	.
(16GG/LL	.	(16B-/LL	.	.	.	.	.
32AA/L	.	32c/L	.	.	.	.	.
32GG/JJJ	.	32B-/JJJ	.	.	.	.	.
8AA/)	.	8c\)	.	4r	.	4r	.
(16BB-/LL	.	(16d\LL	.	.	.	.	.
32C/L	.	32en\L	.	.	.	.	.
32BB-/JJJ	.	32d\JJJ	.	.	.	.	.
8C/)	.	8e\)	.	2r	.	2r	.
(16D\LL	.	(16fn\LL	.	.	.	.	.
32En\L	.	32g\L	.	.	.	.	.
32D\JJ	.	32f\JJ	.	.	.	.	.
8E\J)	.	8g\J)	.	.	.	.	.
8Fn'\	.	8a'\	.	.	.	.	.
=34	=34	=34	=34	=34	=34	=34	=34
4BB-/	.	4d\	.	8dd'\	.	8ff'\	.
.	.	.	.	(16cc\LL	.	(16ee-\LL	.
.	.	.	.	32dd\L	.	32ff\L	.
.	.	.	.	32cc\JJJ	.	32ee-\JJJ	.
4r	.	4r	.	8b-\)	.	8dd\)	.
.	.	.	.	(16a-/LL	.	(16cc\LL	.
.	.	.	.	32b-/L	.	32dd\L	.
.	.	.	.	32a-/JJJ	.	32cc\JJJ	.
2r	.	2r	.	8g/)	.	8b-\)	.
.	.	.	.	(16f/LL	.	(16a-/LL	.
.	.	.	.	32g/L	.	32b-/L	.
.	.	.	.	32f/JJJ	.	32a-/JJJ	.
.	.	.	.	8e-/)	.	8g/)	.
.	.	.	.	(8d/	.	(8f#/	.
=35	=35	=35	=35	=35	=35	=35	=35
8r	.	8r	.	4e-/)	.	4g/)	.
(8E-\L	.	(8g\L	.	.	.	.	.
8D\	.	8f#\	.	4r	.	4r	.
8E-\J)	.	8g\J)	.	.	.	.	.
2r	.	2r	.	(8f#/L	p	(8ff#\L	p
.	.	.	.	8g/)	.	8gg\)	.
.	.	.	.	(8f#/	.	(8ff#\	.
.	.	.	.	8g/J)	.	8gg\J)	.
=36	=36	=36	=36	=36	=36	=36	=36
(4F\	.	(4A-/	.	(8.Bn/L	f	(8.bn\L	f
.	.	.	.	32c/LL	.	32cc\LL	.
.	.	.	.	32d/JJJ)	.	32dd\JJJ)	.
4E-\)	.	4G/)	.	4c/	.	4cc\	.
2r	.	2r	.	(8en/L	p	(8een\L	p
.	.	.	.	8fn/)	.	8ffn\)	.
.	.	.	.	(8e/	.	(8ee\	.
.	.	.	.	8f/J)	.	8ff\J)	.
=37	=37	=37	=37	=37	=37	=37	=37
(4E-\	.	(4c\	.	(8.A/L	f	(8.a\L	f
.	.	.	.	32B-/LL	.	32b-\LL	.
.	.	.	.	32c/JJJ)	.	32cc\JJJ)	.
4D\)	.	4F/)	.	4B-'/	.	4b-'\	.
(4E-\	p	2F/	p	(4A/	p	(4c/	p
4D\)	.	.	.	4Bn/)	.	4d/)	.
=38	=38	=38	=38	=38	=38	=38	=38
8C/	.	8r	.	8c/	.	8e-/	.
(4AA/	fp	(4c\	fp	(4e-/	fp	(4g/	fp
8BB-/)	.	8d\)	.	8d/)	.	8fn/)	.
(4.E-\	p	2G/	p	8r	.	8r	.
.	.	.	.	(8d/L	p	(8f/L	p
.	.	.	.	8c/	.	8e-/	.
8En\)	.	.	.	8B-/J)	.	8d/J)	.
=39	=39	=39	=39	=39	=39	=39	=39
4F\	f	8A/	.	8A/	.	8c/	.
.	.	(4a\	fp	(4cc\	fp	(4ff\	fp
4r	.	.	.	.	.	.	.
.	.	8f\)	.	8a/)	.	8cc\)	.
4FF/	.	8r	.	8r	.	8r	.
.	.	(4b-\	fp	(4dd\	fp	(4ff\	fp
4r	.	.	.	.	.	.	.
.	.	8f\)	.	8b-\)	.	8dd\)	.
=40	=40	=40	=40	=40	=40	=40	=40
(2F\	p	4f\	p	(8.a/L	p	(8.cc\L	p
.	.	.	.	32b-/LL	.	32dd\LL	.
.	.	.	.	32a/JJJ)	.	32cc\JJJ)	.
.	.	(2c\	.	8f'/L	.	8a'/L	.
.	.	.	.	8f'/J	.	8a'/J	.
2C/)	.	.	.	8r	.	8r	.
.	.	.	.	(8f/L	.	(8a/L	.
.	.	4B-/)	.	8g/	.	8b-/	.
.	.	.	.	8en/J)	.	8g/J)	.
=41	=41	=41	=41	=41	=41	=41	=41
4FF/	f	8A/	.	8r	.	8r	.
.	.	(4a\	fp	(4cc\	fp	(4ff\	fp
4r	.	.	.	.	.	.	.
.	.	8f\)	.	8a/)	.	8cc\)	.
4F\	.	8r	.	8r	.	8r	.
.	.	(4b-\	fp	(4dd\	fp	(4ff\	fp
4r	.	.	.	.	.	.	.
.	.	8f\)	.	8b-\)	.	8dd\)	.
=42	=42	=42	=42	=42	=42	=42	=42
(2FF/	p	4f\	p	(8.a/L	p	(8.cc\L	p
.	.	.	.	32b-/LL	.	32dd\LL	.
.	.	.	.	32a/JJJ)	.	32b-\JJJ)	.
.	.	(2c\	.	8f'/L	.	8a'/L	.
.	.	.	.	8f'/J	.	8a'/J	.
2CC/)	.	.	.	8r	.	8r	.
.	.	.	.	(8f/L	.	(8a/L	.
.	.	4B-/)	.	8g/	.	8b-/	.
.	.	.	.	8en/J)	.	8g/J)	.
=43	=43	=43	=43	=43	=43	=43	=43
(8FF/L	.	4A/	.	(8f/L	.	(8f/L	.
8EEn/	.	.	.	8en/	.	8en/	.
8FF/	.	(8F/L	.	8f/	.	8f/	.
8GG/J	.	8G/J	.	8g/J	.	8g/J	.
8AA/L	.	8A/L	.	8a\L	.	8a\L	.
8BB-/	.	8B-/	.	8b-\	.	8b-\	.
8C/	.	8c/	.	8cc\	.	8cc\	.
8D/J)	.	8d/J)	.	8dd\J)	.	8dd\J)	.
=44	=44	=44	=44	=44	=44	=44	=44
8E-'\	.	8e-'\	.	8ee-'\	.	8ee-'\	.
8r	.	8r	.	8r	.	8r	.
8C'/	.	8c'\	.	8cc'\	.	8cc'\	.
8r	.	8r	.	8r	.	8r	.
8AA'/	.	8A'/	.	8a'/	.	8a'/	.
8r	.	8r	.	8r	.	8r	.
4r	.	4r	.	4r	.	4r	.
=45	=45	=45	=45	=45	=45	=45	=45
(2B-\	f	(8d\L	f	4ff'\	f	1r	.
.	.	8f\	.	.	.	.	.
.	.	8d\	.	4ff'\	.	.	.
.	.	8f\J)	.	.	.	.	.
2A\)	.	(8c\L	.	4r	.	.	.
.	.	8f\	.	.	.	.	.
.	.	8c\	.	(16.aa\LL	.	.	.
.	.	.	.	32ff\k)	.	.	.
.	.	8f\J)	.	(16.aa\	.	.	.
.	.	.	.	32ff\JJk)	.	.	.
=46	=46	=46	=46	=46	=46	=46	=46
(2G\	.	(8B-\L	.	4bb-'\	.	1r	.
.	.	8d\	.	.	.	.	.
.	.	8B-\	.	4bb-'\	.	.	.
.	.	8d\J)	.	.	.	.	.
2D\)	.	(8F/L	.	4r	.	.	.
.	.	8B-/	.	.	.	.	.
.	.	8d/	.	(16.ff\LL	.	.	.
.	.	.	.	32dd\k)	.	.	.
.	.	8B-/J)	.	(16.ff\	.	.	.
.	.	.	.	32dd\JJk)	.	.	.
=47	=47	=47	=47	=47	=47	=47	=47
(2E-\	.	(8G/L	.	4cc'\	.	1r	.
.	.	8B-/	.	.	.	.	.
.	.	8G/	.	4cc'\	.	.	.
.	.	8B-/J)	.	.	.	.	.
2F\)	.	(8A\L	.	4r	.	.	.
.	.	8c\)	.	.	.	.	.
.	.	(8c\	.	(16.ee-\LL	.	.	.
.	.	.	.	32cc\k)	.	.	.
.	.	8e-\J)	.	(16.ee-\	.	.	.
.	.	.	.	32cc\JJk)	.	.	.
=48	=48	=48	=48	=48	=48	=48	=48
4G\	.	(8d\L	.	4b-'\	.	1r	.
.	.	8B-\	.	.	.	.	.
4r	.	8d\	.	4b-'\	.	.	.
.	.	8B-\J)	.	.	.	.	.
!	!	! (32e-P/LLL	!	! (32ggP/LLL	!	!	!
!	!	! 32fP/JJJ	!	! 32aaP/JJJ	!	!	!
4E-\	.	4.gp\)	.	4.bb-p\)	.	.	.
4G\	.	.	.	.	.	.	.
.	.	16f\LL	.	16aa\LL	.	.	.
.	.	16e-\JJ	.	16gg\JJ	.	.	.
=49	=49	=49	=49	=49	=49	=49	=49
!	!	! 16e-P/	!	! 16ggP/	!	!	!
4B-\	.	8dp\L	.	8ffp\L	.	1r	.
.	.	16c\L	.	16ee-\L	.	.	.
.	.	16B-\JJ	.	16dd\JJ	.	.	.
4r	.	4B-/	.	4dd\	.	.	.
!	!	! (32e-P/LLL	!	! (32ggP/LLL	!	!	!
!	!	! 32fP/JJJ	!	! 32aaP/JJJ	!	!	!
4E-\	.	4.gp\)	.	4.bb-p\)	.	.	.
4G\	.	.	.	.	.	.	.
.	.	16f\LL	.	16aa\LL	.	.	.
.	.	16e-\JJ	.	16gg\JJ	.	.	.
=50	=50	=50	=50	=50	=50	=50	=50
!	!	! 16e-P/	!	! 16ggP/	!	!	!
4B-\	.	8dp\L	.	8ffp\L	.	1r	.
.	.	16c\L	.	16ee-\L	.	.	.
.	.	16B-\JJ	.	16dd\JJ	.	.	.
4r	.	4B-/	.	4dd\	.	.	.
(4D\	.	(4B-/	.	(8.b-/L	.	.	.
.	.	.	.	16f/k)	.	.	.
4C/)	.	4A/)	.	(8.cc/	.	.	.
.	.	.	.	16f/Jk)	.	.	.
=51	=51	=51	=51	=51	=51	=51	=51
4BB-/	.	8B-/	.	8dd\	.	1r	.
.	.	4g\	.	4ee-\	.	.	.
4B-\	.	.	.	.	.	.	.
.	.	4f\	.	4dd\	.	.	.
4E-\	.	.	.	.	.	.	.
.	.	4e-\	.	4cc\	.	.	.
4F\	.	.	.	.	.	.	.
.	.	8c\	.	8a/	.	.	.
=52	=52	=52	=52	=52	=52	=52	=52
(4B-\	.	(12d\L	.	(12b-\L	.	4bb-'\	.
.	.	12e-\	.	12cc\	.	.	.
.	.	12f\J)	.	12dd\J)	.	.	.
4A-\	.	4f\	.	4dd\	.	4bb-'\	.
4G\	.	(12g\L	.	(12ee-\L	.	4r	.
.	.	12a-\	.	12ff\	.	.	.
.	.	12b-\J)	.	12gg\J)	.	.	.
4E-\)	.	4b-\	.	4gg\	.	(16.bb-\LL	.
.	.	.	.	.	.	32gg\k)	.
.	.	.	.	.	.	(16.ccc\	.
.	.	.	.	.	.	32bb-\JJk)	.
=53	=53	=53	=53	=53	=53	=53	=53
4F\	.	8f\L	.	8cc\L	.	4aa-\	.
.	.	8f\	.	8cc\	.	.	.
4A-\	.	8f\	.	8cc\	.	(16.ff\LL	.
.	.	.	.	.	.	32cc\k)	.
.	.	8f\J	.	8cc\J	.	(16.ff\	.
.	.	.	.	.	.	32ee-\JJk)	.
4B-\	.	8f\L	.	8b-\L	.	4dd\	.
.	.	8f\	.	8b-\	.	.	.
4D\	.	8f\	.	8b-\	.	(16.a-/LL	.
.	.	.	.	.	.	32f/k)	.
.	.	8f\J	.	8b-\J	.	(16.b-/	.
.	.	.	.	.	.	32a-/JJk)	.
=54	=54	=54	=54	=54	=54	=54	=54
4E-\	.	(8g\L	.	(8b-/L	.	4g/	.
.	.	8e-\J)	.	8g/J)	.	.	.
4r	.	(8B-/L	.	(8e-/L	.	4g/	.
.	.	8G/J)	.	8B-/J)	.	.	.
!	!	! (32A-P/LLL	!	! (32cP/LLL	!	! (32ccP/LLL	!
!	!	! 32B-P/JJJ	!	! 32dP/JJJ	!	! 32ddP/JJJ	!
4AA-/	.	4.cp\)	.	4.e-p/)	.	4.ee-p\)	.
4C/	.	.	.	.	.	.	.
.	.	16B-/LL	.	16d/LL	.	16dd\LL	.
.	.	16A-/JJ	.	16c/JJ	.	16cc\JJ	.
=55	=55	=55	=55	=55	=55	=55	=55
!	!	! 16A-P/	!	! 16cP/	!	! 16ccP/	!
4E-\	.	8Gp/L	.	8B-p/L	.	8b-p/L	.
.	.	16F/L	.	16A-/L	.	16a-/L	.
.	.	16E-/JJ	.	16G/JJ	.	16g/JJ	.
4r	.	4E-/	.	4G/	.	4g/	.
!	!	! (32A-P/LLL	!	! (32cP/LLL	!	! (32ccP/LLL	!
!	!	! 32B-P/JJJ	!	! 32dP/JJJ	!	! 32ddP/JJJ	!
4AA-/	.	4.cp\)	.	4.e-p/)	.	4.ee-p\)	.
4C/	.	.	.	.	.	.	.
.	.	16B-/LL	.	16d/LL	.	16dd\LL	.
.	.	16A-/JJ	.	16c/JJ	.	16cc\JJ	.
=56	=56	=56	=56	=56	=56	=56	=56
!	!	! 16A-P/	!	! 16cP/	!	! 16ccP/	!
4E-\	.	8Gp/L	.	8B-p/L	.	8b-p/L	.
.	.	16F/L	.	16A-/L	.	16a-/L	.
.	.	16E-/JJ	.	16G/JJ	.	16g/JJ	.
4r	.	4E-/	.	4G/	.	4g/	.
(4G\	.	[2B-/	.	(4B-/	.	(8.ee-\L	.
.	.	.	.	.	.	16b-\k)	.
4F\)	.	.	.	4d/)	.	(8.ff\	.
.	.	.	.	.	.	16b-\Jk)	.
=57	=57	=57	=57	=57	=57	=57	=57
4E-\	.	4B-/]	.	(4.e-/	.	(4.gg\	.
4E-\	.	2E-/	.	.	.	.	.
.	.	.	.	8f/)	.	8aan\)	.
4E-\	.	.	.	(12g'/L	.	(12bb-'\L	.
.	.	.	.	12f'/	.	12aa'\	.
.	.	.	.	12e-'/J	.	12gg'\J	.
(8E-\L	.	4G/	.	12d'/L	.	12ff'\L	.
.	.	.	.	12c'/	.	12ee-'\	.
8En\J)	.	.	.	.	.	.	.
.	.	.	.	12B-'/J)	.	12dd'\J)	.
=58	=58	=58	=58	=58	=58	=58	=58
4F\	.	2F/	.	(8.B-T/L	.	(8.ddt\L	.
.	.	.	.	32An/LL	.	32cc\LL	.
.	.	.	.	32B-/JJJ)	.	32dd\JJJ)	.
4FF/	.	.	.	4A/	.	4cc\	.
2r	.	2r	.	(8f#/L	p	(8ff#\L	p
.	.	.	.	8g/)	.	8gg\)	.
.	.	.	.	(8f#/	.	(8ff#\	.
.	.	.	.	8g/J)	.	8gg\J)	.
=59	=59	=59	=59	=59	=59	=59	=59
4F\	.	(8.An/L	.	(8.c/L	f	(8.cc\L	f
.	.	32B-/LL	.	32d/LL	.	32dd\LL	.
.	.	32c/JJJ)	.	32e-/JJJ)	.	32ee-\JJJ)	.
4BB-/	.	4B-'/	.	4d'/	.	4dd'\	.
2r	.	2r	.	(8f#/L	p	(8ff#\L	p
.	.	.	.	8g/J)	.	8gg\J)	.
.	.	.	.	(16f#/LL	.	(16ff#\LL	.
.	.	.	.	16g/)	.	16gg\)	.
.	.	.	.	(16f#/	.	(16ff#\	.
.	.	.	.	16g/JJ)	.	16gg\JJ)	.
=60	=60	=60	=60	=60	=60	=60	=60
4FF/	.	(8.A/L	.	(8.c/L	f	(8.cc\L	f
.	.	32B-/LL	.	32d/LL	.	32dd\LL	.
.	.	32c/JJJ)	.	32e-/JJJ)	.	32ee-\JJJ)	.
4BB-/	.	4B-'/	.	4d'/	.	4dd'\	.
2r	.	2r	.	8.B-/L	.	8.dd\L	.
.	.	.	.	32c/LL	.	32ee-\LL	.
.	.	.	.	32d/JJJ	.	32ffn\JJJ	.
.	.	.	.	16e-'/LL	.	16gg'\LL	.
.	.	.	.	16fn'/	.	16aa'\	.
.	.	.	.	16g'/	.	16bb-'\	.
.	.	.	.	16a'/JJ	.	16ccc'\JJ	.
=61	=61	=61	=61	=61	=61	=61	=61
1r	.	1r	.	8b-'\	.	8ddd'\	.
.	.	.	.	(16a/LL	p	(16ccc\LL	p
.	.	.	.	32b-/L	.	32ddd\L	.
.	.	.	.	32a/JJ	.	32ccc\JJ	.
.	.	.	.	8g/J)	.	8bb-\J)	.
.	.	.	.	(16f/LL	.	(16aa\LL	.
.	.	.	.	32g/L	.	32bb-\L	.
.	.	.	.	32f/JJ	.	32aa\JJ	.
.	.	.	.	8e-/J)	.	8gg\J)	.
.	.	.	.	(16d/LL	.	(16ff\LL	.
.	.	.	.	32e-/L	.	32gg\L	.
.	.	.	.	32d/JJ	.	32ff\JJ	.
.	.	.	.	8c/J)	.	8ee-\J)	.
.	.	.	.	(8Bn/	f	(8dd\	f
=62	=62	=62	=62	=62	=62	=62	=62
2r	.	2r	.	4c/)	.	4ee-\)	.
.	.	.	.	4r	.	4r	.
(4E-\	p	2F/	p	(4A/	p	(4c/	p
4D\)	.	.	.	4B-/)	.	4d/)	.
=63	=63	=63	=63	=63	=63	=63	=63
8C/	.	8r	.	8c/	.	8e-/	.
(4AA/	fp	(4c\	fp	(4e-/	fp	(4g/	fp
8BB-/)	.	8F/)	.	8d/)	.	8f/)	.
(4EE-/	p	(4G/	p	8r	.	8r	.
.	.	.	.	(8c/L	p	(8e-/L	p
4FF/)	.	4F/)	.	8B-/	.	8d/	.
.	.	.	.	8A/J)	.	8c/J)	.
=64	=64	=64	=64	=64	=64	=64	=64
2BB-/	.	2F/	.	(4A/	.	(4c#/	.
.	.	.	.	4B-/)	.	4d/)	.
(4e-\	.	2f\	.	(4a/	.	(4cc\	.
4d\)	.	.	.	4b-\)	.	4dd\)	.
=65	=65	=65	=65	=65	=65	=65	=65
8c\	.	8r	.	8cc\	.	8ee-\	.
(4A\	fp	(4cc\	fp	(4ee-\	fp	(4gg\	fp
8B-\)	.	8f\)	.	8dd\)	.	8ff\)	.
(4E-\	p	(4g\	p	8r	.	8r	.
.	.	.	.	(8cc\L	p	(8ee-\L	p
4F\)	.	8f\L	.	8b-\	.	8dd\	.
.	.	8e-\J)	.	8a\J)	.	8cc\J)	.
=66	=66	=66	=66	=66	=66	=66	=66
4BB-/	f	8d\	.	8r	.	8r	.
.	.	(4f\	fp	(4b-\	fp	(4bb-\	fp
4r	.	.	.	.	.	.	.
.	.	8d\)	.	8f/)	.	8ff\)	.
4E-\	.	8r	.	8r	.	8r	.
.	.	(4g\	fp	(4b-\	fp	(4bb-\	fp
4r	.	.	.	.	.	.	.
.	.	8e-\)	.	8g/)	.	8gg\)	.
=67	=67	=67	=67	=67	=67	=67	=67
2F\	p	(8.d\L	p	(8.f/L	p	(8.ff\L	p
.	.	32e-\LL	.	32g/LL	.	32gg\LL	.
.	.	32c\JJJ)	.	32e-/JJJ)	.	32ee-\JJJ)	.
.	.	8B-'/L	.	8d'/L	.	8dd'\L	.
.	.	8B-'/J	.	8d'/J	.	8dd'\J	.
2FF/	.	8r	.	8r	.	8r	.
.	.	(8B-/L	.	(8d/L	.	(8dd\L	.
.	.	8c/	.	8e-/	.	8ee-\	.
.	.	8A/J)	.	8c/J)	.	8cc\J)	.
=68	=68	=68	=68	=68	=68	=68	=68
4BB-/	f	8r	.	8r	.	8r	.
.	.	(4d\	fp	(4f/	fp	(4b-\	fp
4r	.	.	.	.	.	.	.
.	.	8B-/)	.	8d/)	.	8f/)	.
4E-\	.	8r	.	8r	.	8r	.
.	.	(4e-\	fp	(4g/	fp	(4b-\	fp
4r	.	.	.	.	.	.	.
.	.	8B-/)	.	8e-/)	.	8g/)	.
=69	=69	=69	=69	=69	=69	=69	=69
2F\	p	4B-/	.	(8.d/L	p	(8.f/L	p
.	.	.	.	32e-/LL	.	32g/LL	.
.	.	.	.	32c/JJJ)	.	32e-/JJJ)	.
.	.	(2F/	.	8B-'/L	.	8d'/L	.
.	.	.	.	8B-'/J	.	8d'/J	.
2FF/	.	.	.	8r	.	8r	.
.	.	.	.	(8B-/L	.	(8d/L	.
.	.	4E-/)	.	8c/	.	8e-/	.
.	.	.	.	8A/J)	.	8c/J)	.
=70	=70	=70	=70	=70	=70	=70	=70
(8BB-/L	.	4D/	.	(8B-/L	.	(8B-/L	.
8AA/	.	.	.	8A/	.	8A/	.
8BB-/	.	(8B-/L	.	8B-/	.	8B-/	.
8C/J	.	8c/J	.	8c/J	.	8c/J	.
8D\L	.	8d\L	.	8d/L	.	8d/L	.
8E-\	.	8e-\	.	8e-/	.	8e-/	.
8F\	.	8f\	.	8f/	.	8f/	.
8D\J)	.	8d\J)	.	8d/J)	.	8d/J)	.
=71	=71	=71	=71	=71	=71	=71	=71
8BB-'/	.	8B-'/	.	8B-'/	.	8B-'/	.
8r	.	8r	.	8r	.	8r	.
8D'\	.	8d'\	.	8d'/	.	8d'/	.
8r	.	8r	.	8r	.	8r	.
8BB-'/	.	8B-'/	.	8B-'/	.	8B-'/	.
8r	.	8r	.	8r	.	8r	.
4r	.	4r	.	4r	.	4r	.
==:|!	==:|!	==:|!	==:|!	==:|!	==:|!	==:|!	==:|!
*-	*-	*-	*-	*-	*-	*-	*-
!!!RWG: Appoggiaturas of spine 'Violino 1' need manual editing in measures: 12, 13, 13, 14, 16, 54, 55, 55, 56
!!!RWG: Appoggiaturas of spine 'Violino 2' need manual editing in measures: 4, 5, 5, 6, 12, 13, 13, 14, 16, 48, 49, 49, 50, 54, 55, 55, 56
!!!RWG: Appoggiaturas of spine 'Viola' need manual editing in measures: 4, 5, 5, 6, 12, 13, 13, 14, 16, 48, 49, 49, 50, 54, 55, 55, 56
!!!RWG: Key is interpreted using the Humdrum key tool.
!!!AFT: stage2
!!!END: 1994/06/13
!!!KEY: 1309059632
!!!EMD: Converted from MuseData to Humdrum Dec 16, 2000, by Andreas Kornstaedt using muse2kern.
!!!EMD: Manual editing by Craig Sapp, Nov 2001
